X: 21413
T: MILFORD SETT (tune 6)
C:
%R: reel
B: Elias Howe "The Musician's Companion" 1843 p.141 #3
S: http://imslp.org/wiki/The_Musician's_Companion_(Howe,_Elias)
Z: 2015 John Chambers <jc:trillian.mit.edu>
M: 2/4
L: 1/16
K: D
% - - - - - - - - - - - - - - - - - - - - - - - - - - - - -
V: 1 name="6"
|:\
fgaa baaa | fgaf gfed | fgaa baag | fdec d2d2 H:|\
de |\
fdec dcBA | cdef e2 de | fdec dcBA | Acec "^D.C."d2 :|
% - - - - - - - - - - Dance description - - - - - - - - - -
%%begintext align
%% (The dance description is missing for this tune.)
%%endtext
% - - - - - - - - - - - - - - - - - - - - - - - - - - - - -
%%sep 1 1 300

%%sep 1 1 500

